X:1
T:The Mouse in the Bag of Potatoes
M:C
L:1/8
Q:80
C:Composed by T. Tully
S:Reel
K:HP
|: {g}Ad{c}de{g}fd{c}df|
{gef}edfd{g}B{d}A{gBd}B2|
{g}Ad{c}de{g}fd{c}df|  !
{gef}edfd{g}B{d}A{Gdc}d2:| |:
fd{c}df{g}Ad{c}de|
{g}fd{c}df{gef}ed{gBG}B2|  !
{g}fd{c}df{g}Ad{c}df|
{gef}edfd{g}B{d}A{Gdc}d2:| |:
{g}Ad{c}df{gef}ed{c}df|  !
{gef}ed{c}df{gef}ed{gBG}B2|
{g}Ad{c}df{gef}ed{c}df|
{gef}edfd{g}B{d}A{Gdc}d2:| |:  !
{g}fA{g}A{d}A{g}eA{g}A{d}A|
{g}fA{g}A{d}A{gef}ed{gBG}B2|
{g}fA{g}A{d}A{gef}eA{g}fA|  !
{gef}edfd{g}B{d}A{Gdc}d2:|

